X:1
T:I love, alas - Kirbye
T:James Gibb editions
T:#
%%score { 1 | 2 } 3 { 4 | 5 } 6
L:1/8
Q:1/4=108
M:4/4
K:C
V:1 treble nm="Soprano I" snm="S"
V:2 treble 
V:3 treble nm="Alto" snm="A"
V:4 treble-8 nm="Tenor I" snm="T"
V:5 treble-8 
V:6 bass nm="Bass" snm="B"
V:1
 z8 | e4 e2 e2 |"^I love, alas" B8 | z2 e2 e3"^George Kirbye\n(1570-1634)" d | c2 A2 B4 | %5
w: |I love, a-|las,|yet am I|not be- lov-|
 A2 A2 d3 c |[M:4/4] B2 A2 B4 | ^c8 | z4 z2 e2 | e2 e2 B2 B2 | c3 B A2 A2 | ^G4 A4- | A4 z2 e2 | %13
w: ed, yet am I|not be- lov-|ed,|I|love, a- las, yet|am I not be-|lov- ed,|* yet|
 e3 d c2 A2 | B2 E2 z2 A2 | e3 e f2 d2 | ^c4 d4 | z4 z2 d2 | d3 d d2 _B2 | A4 G4 | z2 d2 g4- | %21
w: am I not be-|lov- ed; My|suits are all re-|ject- ed,|my|suits are all re-|ject- ed,|And all|
 g2 g2 g2 f2 | e8 | e8 | z4 e4- | e4 e3 e | e4 c4- | c2 c2 d2 e2 | f4 e2 e2- | e2 d2 c2 B2 | %30
w: * my looks sus-|pect-|ed.|Ex\-|* pe- ri-|ence now|* too late hath|prov- ed, now|* too late hath|
 A4 ^G4 | z8 | z4 z2 e2 | f3 f e4 | z2 c2 d2 d2 | e4 A4 | z4 z2 B2 | c3 c B2 A2 | ^G2 G2 A4 | %39
w: prov- ed,||That|'twas in vain|that erst I|lov- ed,|that|'twas in vain that|erst I lov-|
 ^G4 z2 e2 | f2 f2 e4 | e8 | z4 =c4- | c4 B3 B | B4 A4- | A2 e2 d2 c2 | d4 G4- | G4 z4 | z8 | z8 | %50
w: ed, that|erst I lov-|ed.|Ex\-|* pe- ri-|ence now|* too late hath|prov- ed,||||
 z2 B2 c3 c | B2 A2 ^G2 G2 | A4 F4 | z4 z2 e2 | f3 f e4 | z2 c2 d2 d2 | e4 A4 | %57
w: That 'twas in|vain that erst I|lov- ed,|that|'twas in vain|that erst I|lov- ed,|
[Q:1/4=107] z2[Q:1/4=106] e2[Q:1/4=104] e3[Q:1/4=103] e |[Q:1/4=101] d6[Q:1/4=99] c2 | %59
w: that 'twas in|vain that|
[Q:1/4=97] B4[Q:1/4=95] A4 |[Q:1/4=92] B8 |[Q:1/4=90] !fermata!^c8 |] %62
w: erst I|lov-|ed.|
V:2
 z8 | z8 | e4 e2 e2 | B4 z4 | z2 e2 e3 d | c2 A2 A4 |[M:4/4] ^G2 E2 E4 | E8 | z2 A2 A2 A2 | %9
w: ||I love, a-|las,|yet am I|not be- lov-|ed, be- lov-|ed,|I love, a-|
 ^G4 z2 e2 | e3 d c2 A2 | B4 E4 | z4 z2 B2 | c3 B A2 A2 | ^G4 A4 | z4 z2 A2 | e3 e f2 d2 | ^c4 d4 | %18
w: las, yet|am I not be-|lov- ed,|yet|am I not be-|lov- ed;|My|suits are all re-|ject- ed,|
 z8 | z8 | z4 z2 d2 | e6 e2 | e2 c2 B4 | ^c8 | z4 =c4- | c4 B3 B | B4 A4- | A2 e2 d2 c2 | d4 G4- | %29
w: ||And|all my|looks sus- pect-|ed.|Ex\-|* pe- ri-|ence now|* too late hath|prov- ed,|
 G4 z4 | z8 | z8 | z2 B2 c3 c | B2 A2 ^G2 G2 | A4 F4 | z4 z2 e2 | f3 f e4 | z2 c2 d2 d2 | e4 A4 | %39
w: |||That 'twas in|vain that erst I|lov- ed,|that|'twas in vain|that erst I|lov- ed,|
 z2 e2 e3 e | d3 c B4 | ^c8 | z4 e4- | e4 e3 e | e4 c4- | c2 c2 d2 e2 | f4 e2 e2- | e2 d2 c2 B2 | %48
w: that 'twas in|vain I lov-|ed.|Ex\-|* pe- ri-|ence now|* too late hath|prov- ed, now|* too late hath|
 A4 ^G4 | z8 | z4 z2 e2 | f3 f e4 | z2 c2 d2 d2 | e4 A4 | z4 z2 B2 | c3 c B2 A2 | ^G2 G2 A4 | %57
w: prov- ed,||That|'twas in vain|that erst I|lov- ed,|that|'twas in vain that|erst I lov-|
 ^G4 z2 e2 | f4 f4 | e8- | e8 | !fermata!e8 |] %62
w: ed, that|erst I|lov\-||ed.|
V:3
 A4 A2 A2 | E8 | z8 | z4 A4 | A2 A2 E4 | z2 A2 F3 F |[M:4/4] ^G2 A2 G4 | A4 z2 A2 | A2 A2 E4 | %9
w: I love, a-|las,||I|love, a- las,|yet am I|not be- lov-|ed, I|love, a- las,|
 z2 ^G2 G2 G2 | A8 | z2 E2 E3 E | F2 F2 E4 | E8- | E4 z2 A2 | A3 A A2 F2 | E4 D4 | z4 z2 D2 | %18
w: I love, a-|las,|yet am I|not be- lov-|ed;|* My|suits are all re-|ject- ed,|my|
 A3 A _B2 G2 | ^F4 G4 | z2 G2 B4- | B2 B2 B2 A2 | (^G2 A4 G2) | A8 | z4 E4- | E4 ^G3 G | ^G4 z4 | %27
w: suits are all re-|ject- ed,|And all|* my looks sus-|pect\- * *|ed.|Ex\-|* pe- ri-|ence|
 z8 | z4 z2 c2- | c2 B2 A2 E2- | E2 E2 E4- | E4 z4 | z8 | z4 z2 B2 | c3 c B2 A2 | ^G2 G2 A4 | %36
w: |now|* too late hath|* prov- ed,|||That|'twas in vain that|erst I lov-|
 F4 z2 E2 | E3 E D4 | z8 | z2 B2 c3 c | B2 A2 ^G4 | A8 | z4 E4- | E4 ^G3 G | ^G4 z4 | z8 | %46
w: ed, that|'twas in vain,||that 'twas in|vain I lov-|ed.|Ex\-|* pe- ri-|ence||
 z4 z2 c2- | c2 B2 A2 E2- | E2 D2 E4- | E4 z4 | z8 | z4 z2 B2 | c3 c B2 A2 | ^G2 G2 A4 | F4 z2 E2 | %55
w: now|* too late hath|* prov- ed,|||That|'twas in vain that|erst I lov-|ed, that|
 E3 E D4 | z8 | z2 B2 c3 c | B6 A2 | ^G2 E2 (A4- | A4 ^G4) | !fermata!A8 |] %62
w: 'twas in vain,||that 'twas in|vain that|erst I lov\-||ed.|
V:4
 z8 | z4 e4 | e2 e2 B4 | z2 B2 c3 B | A2 A2 ^G4 | A8 |[M:4/4][K:treble-8] z8 | z2 a2 a2 a2 | e8 | %9
w: |I|love, a- las,|yet am I|not be- lov-|ed,||I love, a-|las,|
 z2 e2 e2 e2 | A8 | z2 B2 c3 B | A2 A2 ^G4 | A8 | z8 | z4 z2 a2 | a3 a a2 f2 | e4 d4 | z8 | %19
w: I love, a-|las,|yet am I|not be- lov-|ed;||My|suits are all re-|ject- ed,||
 z2 A2 =B4- | B2 B2 B2 A2 | G4 E4 | z2 e2 e4 | e8 | z4 g4- | g4 e3 e | e4 e4- | e2 e2 A2 c2- | %28
w: And all|* my looks sus-|pect- ed,|sus- pect-|ed.|Ex\-|* pe- ri-|ence now|* too late hath|
 c2 B2 c2 c2- | c2 G2 A2 ^G2 | A4 B4 | z2 e2 f3 f | e4 z2 c2 | d2 d2 e4 | A4 z4 | z4 A4 | d3 d B4 | %37
w: * prov- ed, now|* too late hath|prov- ed,|That 'twas in|vain that|erst I lov-|ed,|that|'twas in vain,|
 z2 e2 f3 f | e3 d c2 d2 | B4 A4 | z2 A2 e4 | e8 | z4 g4- | g4 e3 e | e4 e4- | e2 e2 A2 c2- | %46
w: that 'twas in|vain that erst I|lov- ed,|I lov-|ed.|Ex\-|* pe- ri-|ence now|* too late hath|
 c2 B2 c2 c2- | c2 G2 A2 ^G2 | A4 B4 | z2 e2 f3 f | e4 z2 c2 | d2 d2 e4 | A4 z4 | z4 A4 | d3 d B4 | %55
w: * prov- ed, now|* too late hath|prov- ed,|That 'twas in|vain that|erst I lov-|ed,|that|'twas in vain,|
 z2 e2 f3 f | e3 d c2 d2 | B4 A4 | z4 A4 | e8- | e8 | !fermata!e8 |] %62
w: that 'twas in|vain that erst I|lov- ed,|I|lov\-||ed.|
V:5
 z4 A4 | A2 A2 E4- | E4 z4 | z2 ^G2 A3 B | c2 c2 B2 E2 | A2 d3 d d2- | %6
w: I|love, a- las,||yet am I|not be- lov- ed,|yet am I not|
[M:4/4][K:treble-8] d2 c2 B4 | A8 | c4 c2 c2 | B8 | z4 z2 A2 | e3 d c4- | c2 d2 B4 | A4 z2 c2 | %14
w: * be- lov-|ed,|I love, a-|las,|yet|am I not|* be- lov-|ed; My|
 B3 B A2 F2 | E4 D2 d2 | A4 D4 | z4 z2 _B2 | A4 G4 | z4 z2 G2 | d6 d2 | d2 c2 (B4- | B2 A2 B4) | %23
w: suits are all re-|ject- ed, re-|ject- ed,|re-|ject- ed,|and|all my|looks sus- pect\-||
 A8 | z4 G4- | G4 ^G3 A | B4 c3 B | A6 G2 | F4 G4 | z8 | z4 z2 B2 | c3 c B2 A2 | ^G2 G2 A4 | %33
w: ed,|ex\-|* pe- ri-|ence now too|late hath|prov- ed,||That|'twas in vain that|erst I lov-|
 D4 z4 | z2 A2 D2 F2 | E4 z2 C2 | D2 D2 E4 | A4 z4 | z2 e2 e2 d2 | e4 e4 | z8 | z8 | z4 G4- | %43
w: ed,|that 'twas in|vain that|erst I lov-|ed,|that erst I|lov- ed.|||Ex\-|
 G4 ^G3 A | B4 c3 B | A6 G2 | F4 G4 | z8 | z4 z2 B2 | c3 c B2 A2 | ^G2 G2 A4 | D4 z4 | %52
w: * pe- ri-|ence now too|late hath|prov- ed,||That|'twas in vain that|erst I lov-|ed,|
 z2 A2 D2 F2 | E4 z2 C2 | D2 D2 E4 | A4 z4 | z2 e2 e2 d2 | e4 z4 | d4 d4- | d4 c4 | B8 | %61
w: that 'twas in|vain that|erst I lov-|ed,|that 'twas in|vain|that erst|* I|lov-|
 !fermata!A8 |] %62
w: ed.|
V:6
 z8 | z8 | z4 E,4 | E,2 E,2 A,,4- | A,,4 z2 E,2 | F,3 E, D,2 D,2 |[M:4/4] E,8 | A,,8 | %8
w: ||I|love, a- las,|* yet|am I not be-|lov-|ed,|
 A,4 A,2 A,2 | E,8 | z8 | z2 E,2 A,3 =G, | F,2 D,2 E,4 | A,,4 z2 A,,2 | E,3 E, F,2 D,2 | ^C,4 D,4 | %16
w: I love, a-|las,||yet I am|not be- lov-|ed; My|suits are all re-|ject- ed,|
 z4 z2 D,2 | A,3 A, _B,2 G,2 | ^F,4 G,4 | z2 D,2 G,4- | G,2 G,2 G,2 F,2 | E,8- | E,8 | A,,8 | %24
w: my|suits are all re-|ject- ed,|And all|* my looks sus-|pect\-||ed.|
 z4 C,4- | C,4 E,3 E, | E,4 A,4- | A,2 G,2 F,2 E,2 | D,4 C,4 | z4 z2 E,2 | F,3 F, E,4 | %31
w: Ex\-|* pe- ri-|ence now|* too late hath|prov- ed,|That|'twas in vain|
 z2 C,2 D,2 D,2 | E,4 A,,4 | z8 | z8 | B,4 C3 C | B,2 A,2 ^G,2 G,2 | A,4 D,4 | z2 E,2 F,3 F, | %39
w: that erst I|lov- ed,|||that 'twas in|vain that erst I|lov- ed,|that 'twas in|
 E,4 z2 C,2 | D,2 D,2 E,4 | A,,8 | z4 C,4- | C,4 E,3 E, | E,4 A,4- | A,2 G,2 F,2 E,2 | D,4 C,4 | %47
w: vain that|erst I lov-|ed.|Ex\-|* pe- ri-|ence now|* too late hath|prov- ed,|
 z4 z2 E,2 | F,3 F, E,4 | z2 C,2 D,2 D,2 | E,4 A,,4 | z8 | z8 | B,4 C3 C | B,2 A,2 ^G,2 G,2 | %55
w: That|'twas in vain|that erst I|lov- ed,|||that 'twas in|vain that erst I|
 A,4 D,4 | z2 E,2 F,3 F, | E,4 z2 C,2 | D,4 D,4 | E,8- | E,8 | !fermata!A,,8 |] %62
w: lov- ed,|that 'twas in|vain that|erst I|lov\-||ed.|

